X:25
T:Cavatina
C:Stanley Myers
N:TablEdited by Ken Yearick
L:1/8
Q:1/4=90
M:3/4
K:E
z6 | bG Be BG | bB dg dB | a/b/c' ea ec | fc ea ec | a/b/c' ea eA | Bf Ad Ab/a/ | 
bB dg dB | eG B=d Ba/g/ | ge Ac Ae | ff Ac Af/e/ | f=d =GB Gd | ee =GB Ge | Bf AB Af | 
Bf fA dA | ef Ge GB | eg be ga | bG Be BG | bB dg dB | a/b/c' ea ec | fc ea ec | 
a/b/c' ea eA | Bf Ad Ab/a/ | bB dg dB | eG B=d Ba/g/ | ge Ac Ae | ff Ac Af/e/ | 
f=d =GB Gd | ee =GB Ge | Bf AB Af | Bf fA dA | ef Ge GB | eb eg bd' | e'B eg eB | 
e'B eg ed'/c'/ | c'd'/e'/ d'^a fB | BB dg c'b | ae Ac Ae | af bd ff | ge Bd Be | 
ee B=d ef | ge Ac Ae | aA cf cA | ^a^A cf cA | bB df dB | bB =df dB | e'=G Be BG | 
ef Gd eG | Be GB eB | bG Be BG | dB dg dB | a/b/c' ea ec | fc ea ec | a/b/c' ea eA | 
Bf Ad Ab/a/ | bB dg dB | eG B=d Ba/g/ | ge Ac Ae | ff Ac Af/e/ | f=d =GB Gd | 
ee =GB Ge | ef AB Af | Bf fA dA | ef Ge GB | eb eg bd' | e'B eg eB | e'B eg ed'/c'/ | 
c'd'/e'/ d'^a fB | BB dg c'b | ae Ac Ae | af bd ff | ge Bd Be | ee B=d ef | ge Ac Ae | 
ff Ac Af/e/ | f=d =GB Gd | ee =GB Ge | fc eA ec | Bf fA dA | ef Gd eG | Bg be gb | 
e'6 | 
 

